resources/icons/16px/paste-variable.svg

<svg width="16" height="16" viewBox="0 0 16 16" fill="none" xmlns="http://www.w3.org/2000/svg">
<path d="M8.99998 1C9.54998 1 9.99998 1.45 9.99998 2V3H4.99998V2C4.99998 1.45 5.44998 1 5.99998 1H5.77998C6.11998 0.4 6.75998 0 7.49998 0C8.23998 0 8.87998 0.4 9.21998 1H8.99998Z" fill="#111418"/>
<path fill-rule="evenodd" clip-rule="evenodd" d="M11 2H12C12.55 2 13 2.45 13 3V15C13 15.55 12.55 16 12 16H3C2.45 16 2 15.55 2 15V3C2 2.45 2.45 2 3 2H4V4H11V2ZM10.3159 11.3262L10.5411 11.4549C10.174 12.0558 9.8236 12.4678 9.48987 12.7167C9.23123 12.9056 8.97259 13 8.71395 13C8.44696 13 8.23004 12.9399 8.05483 12.8197C7.87962 12.6996 7.7211 12.5021 7.5876 12.2361C7.45411 11.9614 7.28725 11.5322 7.10369 10.9399C6.61979 11.5665 6.24434 12.0215 5.96901 12.3047C5.69368 12.588 5.46841 12.7768 5.28486 12.8627C5.10131 12.9485 4.90942 12.9914 4.70083 12.9914C4.48391 12.9914 4.31704 12.9313 4.1919 12.8026C4.06675 12.6738 4 12.5107 4 12.3133C4 12.1073 4.06675 11.927 4.20024 11.7897C4.33373 11.6524 4.50894 11.5837 4.71752 11.5837C4.82598 11.5837 4.95113 11.618 5.09297 11.6781C5.29321 11.7811 5.44339 11.8326 5.53516 11.8326C5.66031 11.8326 5.76877 11.8069 5.86055 11.7554C5.9857 11.6953 6.13588 11.5579 6.32777 11.3519C6.44458 11.2232 6.6615 10.9485 6.9702 10.5279C6.56973 9.03434 6.26102 8.14163 6.0441 7.84979C5.90226 7.66094 5.72706 7.56652 5.51013 7.56652C5.40167 7.56652 5.25983 7.58369 5.10131 7.61803L5.14303 7.38627L7.30393 7.00858C7.69607 7.62661 7.97139 8.3133 8.11323 9.0515C8.52205 8.45064 8.82241 8.02146 9.03099 7.78112C9.30632 7.45494 9.53993 7.24034 9.71514 7.14592C9.89869 7.0515 10.0906 7 10.2908 7C10.5244 7 10.6913 7.06009 10.8164 7.18884C10.9416 7.30901 11 7.48069 11 7.69528C11 7.8927 10.9416 8.05579 10.8164 8.18455C10.6996 8.3133 10.5495 8.37339 10.3659 8.37339C10.2408 8.37339 10.0822 8.35622 9.91538 8.30472C9.74017 8.2618 9.62336 8.23605 9.55661 8.23605C9.38975 8.23605 9.22288 8.29614 9.06436 8.42489C8.84744 8.59657 8.5888 8.96567 8.27175 9.52361C8.62217 10.7854 8.90584 11.5494 9.11442 11.8326C9.23957 11.9871 9.36472 12.073 9.48987 12.073C9.58999 12.073 9.69011 12.0386 9.7652 11.9871C9.882 11.8927 10.0656 11.6781 10.3159 11.3262Z" fill="#111418"/>
</svg>

<svg xmlns="http://www.w3.org/2000/svg" viewBox="0 0 16 16">
  <path d="M9 1c.55 0 1 .45 1 1v1H5V2c0-.55.45-1 1-1h-.22c.34-.6.98-1 1.72-1s1.38.4 1.72 1z"/>
  <path d="M11 2h1c.55 0 1 .45 1 1v12c0 .55-.45 1-1 1H3c-.55 0-1-.45-1-1V3c0-.55.45-1 1-1h1v2h7zm-.684 9.326.225.129c-.367.6-.717 1.013-1.051 1.262Q9.102 13 8.714 13c-.267 0-.484-.06-.66-.18-.174-.12-.333-.318-.466-.584a10 10 0 0 1-.484-1.296q-.724.94-1.135 1.365c-.275.283-.5.472-.684.558a1.35 1.35 0 0 1-.584.128c-.217 0-.384-.06-.51-.188a.68.68 0 0 1-.191-.49.73.73 0 0 1 .2-.523.7.7 0 0 1 .518-.206c.108 0 .233.034.375.094q.302.155.442.155a.65.65 0 0 0 .326-.078c.125-.06.275-.197.467-.403q.177-.194.642-.824-.6-2.24-.926-2.678c-.142-.19-.317-.283-.534-.283-.108 0-.25.017-.409.051l.042-.232 2.16-.377c.393.618.668 1.304.81 2.043.41-.601.71-1.03.918-1.27.275-.327.509-.542.684-.636q.276-.144.576-.146c.233 0 .4.06.525.189.126.12.184.292.184.506a.67.67 0 0 1-.184.49.58.58 0 0 1-.45.188 1.6 1.6 0 0 1-.45-.068 2 2 0 0 0-.36-.069.77.77 0 0 0-.492.189c-.217.172-.475.54-.792 1.099.35 1.261.634 2.025.842 2.309.126.154.25.24.376.24a.5.5 0 0 0 .275-.086c.117-.094.3-.309.55-.66"/>
</svg>
